X:5007
T:Paro Lou Loup Petiote
O:england
C:MCTB 1/41
M:3/8
L:1/8
K:C
c|dg>f|g/f/e/d/c|dg>f|g3|\
dg>f|g/f/e/d/c|dg>f|1 g2:|2 g3||
|:dgf|dec|B/c/d/e/d/c/|BGG|\
dgf|dec|B/c/d/e/d/B/|1 c3:|2 c2||


